communes/2866.svg

<?xml version="1.0" encoding="UTF-8"?>
<svg version="1.1" viewBox="0 0 540 620" xmlns="http://www.w3.org/2000/svg" xmlns:cc="http://creativecommons.org/ns#" xmlns:dc="http://purl.org/dc/elements/1.1/" xmlns:rdf="http://www.w3.org/1999/02/22-rdf-syntax-ns#">
<metadata>
<rdf:RDF>
<cc:Work rdf:about="">
<dc:format>image/svg+xml</dc:format>
<dc:type rdf:resource="http://purl.org/dc/dcmitype/StillImage"/>
</cc:Work>
</rdf:RDF>
</metadata>
<title>Wappen von Wintersingen</title>
<desc>Wappen der Schweizer Gemeinde Wintersingen, Kanton Baselland</desc>
<path d="m4.5 4.5h531v345.5a265.5 265.5 0 0 1-531 0z" fill="#e2001a" stroke="#000" stroke-width="9"/>
<g fill="#fff" stroke="#000" stroke-linejoin="round" stroke-width="4">
<path d="m383 224c-7 30 3 89 34 122 11 13 31 27 48 12 12-11 8-36 2-42 6 6 30 12 43 1 16-16 3-37-8-49-31-33-88-48-119-44m-94 103c-7 39 9 116 50 162 15 17 41 37 62 18 16-14 9-47 2-55 7 8 39 19 55 4 20-18 3-47-13-64-40-45-116-69-156-65m-88 108c-7 30 3 89 34 122 11 13 31 28 48 12 12-11 8-36 2-42 6 6 30 13 43 1 16-15 4-36-8-49-30-33-88-48-119-44"/>
<path d="m275 137 209 225c7 8 20 8 28 1s8-20 1-28l-209-225 41 7c-37-40-72-68-129-73 1 57 26 94 63 134zm-171 14 323 358c7 8 20 8 28 1s8-20 1-28l-322-358 54 9c-42-47-92-79-154-89 4 62 30 115 73 162zm-21 184 213 234c7 8 20 9 28 1 9-7 9-20 2-28l-214-234 42 7c-38-41-72-69-129-74-1 58 24 95 61 136z"/>
</g>
</svg>

<?xml version="1.0" encoding="UTF-8" standalone="no"?>
<svg
   xmlns:dc="http://purl.org/dc/elements/1.1/"
   xmlns:cc="http://creativecommons.org/ns#"
   xmlns:rdf="http://www.w3.org/1999/02/22-rdf-syntax-ns#"
   xmlns:svg="http://www.w3.org/2000/svg"
   xmlns="http://www.w3.org/2000/svg"
   xmlns:sodipodi="http://sodipodi.sourceforge.net/DTD/sodipodi-0.dtd"
   xmlns:inkscape="http://www.inkscape.org/namespaces/inkscape"
   version="1.1"
   width="540"
   height="620"
   viewBox="0 0 540 620"
   id="svg14"
   sodipodi:docname="2866.svg">
  <metadata
     id="metadata20">
    <rdf:RDF>
      <cc:Work
         rdf:about="">
        <dc:format>image/svg+xml</dc:format>
        <dc:type
           rdf:resource="http://purl.org/dc/dcmitype/StillImage" />
      </cc:Work>
    </rdf:RDF>
  </metadata>
  <defs
     id="defs18" />
  <sodipodi:namedview
     pagecolor="#ffffff"
     bordercolor="#666666"
     borderopacity="1"
     objecttolerance="10"
     gridtolerance="10"
     guidetolerance="10"
     inkscape:pageopacity="0"
     inkscape:pageshadow="2"
     inkscape:window-width="640"
     inkscape:window-height="480"
     id="namedview16" />
  <title
     id="title2">Wappen von Wintersingen</title>
  <desc
     id="desc4">Wappen der Schweizer Gemeinde Wintersingen, Kanton Baselland</desc>
  <path
     d="M 4.5,4.5 h 531 V 350 A 265.5 265.5 0 0 1 4.5,350 z"
     stroke="black"
     stroke-width="9"
     fill="#e2001a"
     id="path6" />
  <g
     stroke="black"
     stroke-width="4"
     fill="white"
     stroke-linejoin="round"
     id="g12">
    <path
       d="M 383,224 c -7,30 3,89 34,122 11,13 31,27 48,12 12,-11 8,-36 2,-42 6,6 30,12 43,1 16,-16 3,-37 -8,-49 -31,-33 -88,-48 -119,-44 M 289,327 c -7,39 9,116 50,162 15,17 41,37 62,18 16,-14 9,-47 2,-55 7,8 39,19 55,4 20,-18 3,-47 -13,-64 -40,-45 -116,-69 -156,-65 M 201,435 c -7,30 3,89 34,122 11,13 31,28 48,12 12,-11 8,-36 2,-42 6,6 30,13 43,1 16,-15 4,-36 -8,-49 -30,-33 -88,-48 -119,-44"
       id="path8" />
    <path
       d="M 275,137 l 209,225 C 491,370 504,370 512,363 520,356 520,343 513,335 l -209,-225 41,7 c -37,-40 -72,-68 -129,-73 1,57 26,94 63,134 z M 104,151 l 323,358 C 434,517 447,517 455,510 463,503 463,490 456,482 l -322,-358 54,9 C 146,86 96,54 34,44 38,106 64,159 107,206 z M 83,335 l 213,234 C 303,577 316,578 324,570 333,563 333,550 326,542 l -214,-234 42,7 C 116,274 82,246 25,241 24,299 49,336 86,377 z"
       id="path10" />
  </g>
</svg>
